Papirus/24x24/panel/solaar-attention.svg

<?xml version="1.0" encoding="UTF-8" standalone="no"?>
<svg xmlns:dc="http://purl.org/dc/elements/1.1/" xmlns:cc="http://creativecommons.org/ns#" xmlns:rdf="http://www.w3.org/1999/02/22-rdf-syntax-ns#" xmlns:svg="http://www.w3.org/2000/svg" xmlns="http://www.w3.org/2000/svg" version="1.1" id="svg11197" viewBox="0 0 24 24" height="24" width="24">
    <metadata id="metadata11202">
        <rdf:RDF>
            <cc:Work rdf:about="">
                <dc:format>
                    image/svg+xml
                </dc:format>
                <dc:type rdf:resource="http://purl.org/dc/dcmitype/StillImage"/>
                <dc:title/>
            </cc:Work>
        </rdf:RDF>
    </metadata>
    <g transform="translate(0,-1028.3622)" id="layer1">
        <g transform="translate(1,-1)" id="g4140">
            <path style="opacity:1;fill:#ffffff;fill-opacity:1;stroke:none;stroke-width:2;stroke-miterlimit:4;stroke-dasharray:none;stroke-opacity:1" d="M 5,3 C 3.892,3 3,3.892 3,5 l 0,12 c 0,1.108 0.892,2 2,2 l 12,0 c 1.108,0 2,-0.892 2,-2 L 19,5 C 19,3.892 18.108,3 17,3 L 5,3 Z M 8.8652344,5.3046875 10.451172,8.0527344 A 3,3 0 0 1 11,8 3,3 0 0 1 11.546875,8.052734 l 1.587891,-2.7480469 1.730468,1 -1.585937,2.75 A 3,3 0 0 1 13.826172,10 L 17,10 l 0,2 -3.175781,0 a 3,3 0 0 1 -0.542969,0.949219 l 1.583984,2.746093 -1.730468,1 -1.585938,-2.748046 A 3,3 0 0 1 11,14 3,3 0 0 1 10.453125,13.947266 l -1.5878906,2.748046 -1.7304688,-1 1.5859375,-2.75 A 3,3 0 0 1 8.1738281,12 L 5,12 5,10 8.1757812,10 A 3,3 0 0 1 8.71875,9.0507812 l -1.5839844,-2.7460937 1.7304688,-1 z" transform="translate(0,1030.3622)" id="path4143"/>
            <path style="opacity:1;fill:#5294e2;fill-opacity:1;stroke:none;stroke-width:2;stroke-miterlimit:4;stroke-dasharray:none;stroke-opacity:1" d="m 11,1039.3622 a 2,2 0 0 0 -2,2 2,2 0 0 0 2,2 2,2 0 0 0 2,-2 2,2 0 0 0 -2,-2 z" id="rect11755"/>
        </g>
    </g>
</svg>

<?xml version="1.0" encoding="UTF-8" standalone="no"?>
<svg id="svg11197" xmlns:rdf="http://www.w3.org/1999/02/22-rdf-syntax-ns#" xmlns="http://www.w3.org/2000/svg" viewBox="0 0 24 24" width="24" version="1.1" xmlns:cc="http://creativecommons.org/ns#" height="24" xmlns:dc="http://purl.org/dc/elements/1.1/">
 <metadata id="metadata11202">
  <rdf:RDF>
   <cc:Work rdf:about="">
    <dc:format>image/svg+xml</dc:format>
    <dc:type rdf:resource="http://purl.org/dc/dcmitype/StillImage"/>
    <dc:title/>
   </cc:Work>
  </rdf:RDF>
 </metadata>
 <g id="layer1" transform="translate(0 -1028.4)">
  <g id="g4140" transform="translate(1,-1)">
   <path id="path4143" d="m5 3c-1.108 0-2 0.892-2 2v12c0 1.108 0.892 2 2 2h12c1.108 0 2-0.892 2-2v-12c0-1.108-0.892-2-2-2h-12zm3.8652 2.3047 1.5858 2.748a3 3 0 0 1 0.549 -0.0527 3 3 0 0 1 0.547 0.0527l1.5879-2.748 1.7305 1-1.5859 2.75a3 3 0 0 1 0.546 0.9453h3.174v2h-3.1758a3 3 0 0 1 -0.54297 0.94922l1.584 2.7461-1.7305 1-1.5859-2.748a3 3 0 0 1 -0.549 0.053 3 3 0 0 1 -0.547 -0.053l-1.5879 2.748-1.7305-1 1.5859-2.75a3 3 0 0 1 -0.5467 -0.945h-3.1738v-2h3.1758a3 3 0 0 1 0.543 -0.9492l-1.584-2.7461 1.7305-1z" transform="translate(0 1030.4)" fill="#fff"/>
   <path id="rect11755" d="m11 1039.4a2 2 0 0 0 -2 2 2 2 0 0 0 2 2 2 2 0 0 0 2 -2 2 2 0 0 0 -2 -2z" fill="#5294e2"/>
  </g>
 </g>
</svg>
